remix/Map/bus-wifi-line.svg

<svg viewBox="0 0 24 24" fill="currentColor" xmlns="http://www.w3.org/2000/svg"><path d="M12 3V5H5V12H21V20H20V21C20 21.5523 19.5523 22 19 22H18C17.4477 22 17 21.5523 17 21V20H7V21C7 21.5523 6.55228 22 6 22H5C4.44772 22 4 21.5523 4 21V20H3V12H2V8H3V5C3 3.89543 3.89543 3 5 3H12ZM19 14H5V18H19V14ZM10 15V17H6V15H10ZM18 15V17H14V15H18ZM18.5 1C20.9853 1 23 3.01472 23 5.5C23 7.98528 20.9853 10 18.5 10C16.0147 10 14 7.98528 14 5.5C14 3.01472 16.0147 1 18.5 1ZM18.4998 6.16667C18.0089 6.16667 17.5593 6.34354 17.2113 6.63704L17.0856 6.75245L18.4998 8.16667L19.9131 6.7515C19.5512 6.39013 19.0516 6.16667 18.4998 6.16667ZM18.4998 3.5C17.2966 3.5 16.1998 3.95536 15.3722 4.70316L15.199 4.86781L16.1428 5.80964C16.746 5.20643 17.5794 4.83333 18.4998 4.83333C19.3436 4.83333 20.1141 5.14684 20.7013 5.66372L20.8569 5.80964L21.7997 4.86684C20.9552 4.02233 19.7885 3.5 18.4998 3.5Z"/></svg>

<svg viewBox="0 0 24 24" xmlns="http://www.w3.org/2000/svg"><path fill="none" d="M0 0h24v24H0Z"/><path d="M12 3v2H5v7h16v8h-1v1 0c0 .55-.45 1-1 1h-1v0c-.56 0-1-.45-1-1v-1H7v1 0c0 .55-.45 1-1 1H5v0c-.56 0-1-.45-1-1v-1H3v-8H2V8h1V5v0c0-1.11.89-2 2-2h7Zm7 11H5v4h14v-4Zm-9 1v2H6v-2h4Zm8 0v2h-4v-2h4Zm.5-14v0C20.98 1 23 3.01 23 5.5c0 2.48-2.02 4.5-4.5 4.5v0C16.01 10 14 7.98 14 5.5 14 3.01 16.01 1 18.5 1Zm0 5.16c-.5 0-.94.17-1.29.47l-.125.11 1.41 1.41 1.41-1.42 -.001 0c-.38-.38-.89-.59-1.42-.59Zm0-2.67v0c-1.16-.01-2.28.42-3.128 1.2l-.18.16 .94.94v0c.62-.63 1.47-.98 2.35-.98v0c.81-.01 1.59.29 2.2.83l.15.14 .94-.95v0c-.88-.88-2.07-1.37-3.3-1.367Z"/></svg>
